packages/assets/static/images/icons/file-png.svg

<svg width="24" height="24" viewBox="0 0 24 24" xmlns="http://www.w3.org/2000/svg">
<path d="M5.4375 14.2505H3.9375C3.73859 14.2505 3.54782 14.3295 3.40717 14.4702C3.26652 14.6108 3.1875 14.8016 3.1875 15.0005V20.2505C3.1875 20.4494 3.26652 20.6402 3.40717 20.7808C3.54782 20.9215 3.73859 21.0005 3.9375 21.0005C4.13641 21.0005 4.32718 20.9215 4.46783 20.7808C4.60848 20.6402 4.6875 20.4494 4.6875 20.2505V19.5005H5.4375C6.13369 19.5005 6.80137 19.2239 7.29366 18.7316C7.78594 18.2394 8.0625 17.5717 8.0625 16.8755C8.0625 16.1793 7.78594 15.5116 7.29366 15.0193C6.80137 14.527 6.13369 14.2505 5.4375 14.2505ZM5.4375 18.0005H4.6875V15.7505H5.4375C5.73587 15.7505 6.02202 15.869 6.233 16.08C6.44397 16.291 6.5625 16.5771 6.5625 16.8755C6.5625 17.1739 6.44397 17.46 6.233 17.671C6.02202 17.882 5.73587 18.0005 5.4375 18.0005ZM20.8125 19.5821C20.8125 19.7752 20.7379 19.9609 20.6044 20.1005C20.3432 20.3816 20.0274 20.6064 19.6763 20.7612C19.3252 20.916 18.9462 20.9974 18.5625 21.0005C16.9078 21.0005 15.5625 19.4864 15.5625 17.6255C15.5625 15.7646 16.9078 14.2505 18.5625 14.2505C19.1138 14.2523 19.6519 14.4192 20.1075 14.7296C20.2725 14.8414 20.3862 15.0143 20.4238 15.21C20.4613 15.4058 20.4195 15.6085 20.3077 15.7735C20.1958 15.9384 20.0229 16.0522 19.8272 16.0897C19.6314 16.1273 19.4287 16.0855 19.2638 15.9736C19.058 15.8299 18.8135 15.7521 18.5625 15.7505C17.7356 15.7505 17.0625 16.5942 17.0625 17.6255C17.0625 18.6567 17.7356 19.5005 18.5625 19.5005C18.8333 19.4975 19.096 19.4081 19.3125 19.2455V18.7505C19.1136 18.7505 18.9228 18.6715 18.7822 18.5308C18.6415 18.3902 18.5625 18.1994 18.5625 18.0005C18.5625 17.8016 18.6415 17.6108 18.7822 17.4702C18.9228 17.3295 19.1136 17.2505 19.3125 17.2505H20.0625C20.2614 17.2505 20.4522 17.3295 20.5928 17.4702C20.7335 17.6108 20.8125 17.8016 20.8125 18.0005V19.5821ZM14.4375 15.0005V20.2505C14.4375 20.4094 14.387 20.5643 14.2934 20.6927C14.1997 20.8211 14.0676 20.9164 13.9163 20.9649C13.8423 20.9886 13.7651 21.0007 13.6875 21.0005C13.5681 21.0005 13.4505 20.972 13.3443 20.9174C13.2382 20.8627 13.1466 20.7836 13.0772 20.6864L10.6875 17.3442V20.2505C10.6875 20.4494 10.6085 20.6402 10.4678 20.7808C10.3272 20.9215 10.1364 21.0005 9.9375 21.0005C9.73859 21.0005 9.54782 20.9215 9.40717 20.7808C9.26652 20.6402 9.1875 20.4494 9.1875 20.2505V15.0005C9.18749 14.8416 9.23796 14.6868 9.33162 14.5584C9.42528 14.43 9.55729 14.3347 9.70861 14.2862C9.85994 14.2377 10.0228 14.2386 10.1736 14.2886C10.3244 14.3386 10.4555 14.4352 10.5478 14.5646L12.9375 17.9067V15.0005C12.9375 14.8016 13.0165 14.6108 13.1572 14.4702C13.2978 14.3295 13.4886 14.2505 13.6875 14.2505C13.8864 14.2505 14.0772 14.3295 14.2178 14.4702C14.3585 14.6108 14.4375 14.8016 14.4375 15.0005ZM4.3125 12.0005C4.51141 12.0005 4.70218 11.9215 4.84283 11.7808C4.98348 11.6402 5.0625 11.4494 5.0625 11.2505V4.50049H13.3125V9.00049C13.3125 9.1994 13.3915 9.39017 13.5322 9.53082C13.6728 9.67147 13.8636 9.75049 14.0625 9.75049H18.5625V11.2505C18.5625 11.4494 18.6415 11.6402 18.7822 11.7808C18.9228 11.9215 19.1136 12.0005 19.3125 12.0005C19.5114 12.0005 19.7022 11.9215 19.8428 11.7808C19.9835 11.6402 20.0625 11.4494 20.0625 11.2505V9.00049C20.0626 8.90197 20.0432 8.8044 20.0056 8.71335C19.968 8.6223 19.9128 8.53957 19.8431 8.46986L14.5931 3.21986C14.5234 3.15024 14.4407 3.09503 14.3496 3.05739C14.2586 3.01975 14.161 3.00041 14.0625 3.00049H5.0625C4.66468 3.00049 4.28314 3.15852 4.00184 3.43983C3.72054 3.72113 3.5625 4.10266 3.5625 4.50049V11.2505C3.5625 11.4494 3.64152 11.6402 3.78217 11.7808C3.92282 11.9215 4.11359 12.0005 4.3125 12.0005ZM14.8125 5.5608L17.5022 8.25049H14.8125V5.5608Z"/>
</svg>

<svg viewBox="0 0 24 24" xmlns="http://www.w3.org/2000/svg" aria-hidden="true" fill="currentColor"><path d="M5.438 14.25h-1.5a.75.75 0 0 0-.75.75v5.25a.75.75 0 1 0 1.5 0v-.75h.75a2.625 2.625 0 0 0 0-5.25m0 3.75h-.75v-2.25h.75a1.125 1.125 0 1 1 0 2.25m15.375 1.582a.75.75 0 0 1-.209.518 2.82 2.82 0 0 1-2.041.9c-1.655 0-3-1.514-3-3.375s1.345-3.374 3-3.374a2.76 2.76 0 0 1 1.545.479.752.752 0 1 1-.844 1.244 1.24 1.24 0 0 0-.701-.223c-.827 0-1.5.843-1.5 1.874s.673 1.875 1.5 1.875c.27-.003.533-.092.75-.255v-.495a.75.75 0 1 1 0-1.5h.75a.75.75 0 0 1 .75.75zm-6.375-4.581v5.25a.75.75 0 0 1-1.36.435l-2.39-3.342v2.906a.75.75 0 1 1-1.5 0V15a.75.75 0 0 1 1.36-.435l2.39 3.342V15a.75.75 0 1 1 1.5 0M4.313 12a.75.75 0 0 0 .75-.75V4.5h8.25V9a.75.75 0 0 0 .75.75h4.5v1.5a.75.75 0 1 0 1.5 0V9a.75.75 0 0 0-.22-.531l-5.25-5.25a.75.75 0 0 0-.53-.22h-9a1.5 1.5 0 0 0-1.5 1.5v6.75a.75.75 0 0 0 .75.75m10.5-6.44 2.69 2.69h-2.69z"/></svg>
